<?xml version="1.0" encoding="UTF-8"?>
<map version="1.10" tiledversion="1.11.0" orientation="orthogonal" renderorder="right-down" width="40" height="25" tilewidth="32" tileheight="32" infinite="0" nextlayerid="3" nextobjectid="14">
 <tileset firstgid="1" source="tiles/Landscapes.tsx"/>
 <layer id="1" name="Tile Layer 1" width="40" height="25">
  <data encoding="csv">
49,50,50,73,98,99,99,100,75,50,50,51,30,31,31,31,31,31,31,31,31,32,73,73,65,2,2,81,73,98,99,99,100,75,83,2,2,67,75,75,
57,7,7,73,106,107,107,108,75,7,23,59,38,39,39,39,39,39,39,39,39,40,73,73,73,65,2,2,81,106,107,107,108,83,2,2,67,75,75,75,
57,4,4,81,106,107,107,108,83,7,23,59,38,39,39,39,39,39,39,39,39,40,73,73,73,75,65,2,2,2,2,2,2,2,2,67,73,75,75,75,
57,4,5,5,23,22,8,5,6,7,23,59,38,39,39,39,39,39,39,39,39,40,73,73,73,75,73,57,2,2,2,2,2,2,59,75,73,75,75,75,
65,70,6,72,66,66,66,66,70,71,72,67,38,39,39,39,39,39,39,39,39,40,73,73,73,75,73,65,2,2,2,2,2,2,67,75,73,75,75,75,
101,78,79,80,97,98,100,97,78,79,80,75,38,39,39,39,39,39,39,39,39,40,73,73,73,75,73,73,78,79,79,79,79,80,75,75,73,75,75,75,
109,78,79,80,105,106,108,105,78,79,80,75,38,39,39,39,39,39,39,39,39,40,73,73,73,75,73,73,78,79,79,79,79,80,75,75,73,75,75,75,
117,86,87,88,105,114,115,105,86,87,88,83,38,39,39,39,20,39,39,39,39,40,73,73,73,75,81,73,78,79,79,79,79,80,75,83,73,75,75,75,
30,31,31,31,31,31,111,31,31,31,31,31,55,2,20,20,20,39,39,39,39,40,73,81,81,83,6,81,86,87,87,87,87,88,83,3,81,83,83,75,
38,39,39,39,39,39,39,39,39,39,39,39,54,45,54,20,20,20,20,20,20,40,81,3,3,3,3,65,7,8,6,6,2,5,67,7,7,5,5,83,
38,39,39,39,39,39,39,39,39,39,39,111,73,75,111,20,20,20,20,20,20,56,31,31,31,31,32,73,78,79,79,79,79,80,75,30,31,31,31,48,
38,39,39,39,39,39,39,39,39,39,2,2,73,75,52,39,39,20,20,20,20,20,39,39,39,39,40,73,86,87,87,87,87,88,75,38,39,39,39,40,
38,39,39,39,39,39,39,39,39,39,2,49,73,75,51,39,39,39,20,20,20,20,20,39,39,39,56,31,31,31,31,31,31,31,31,55,39,39,39,40,
38,39,39,49,50,51,39,39,39,39,39,2,73,75,2,39,39,39,39,39,39,39,39,39,39,39,39,39,39,39,39,39,39,39,39,39,39,39,39,40,
38,39,39,57,60,59,39,39,39,39,39,2,73,75,2,39,39,39,39,39,39,39,39,39,39,39,39,39,39,39,39,39,39,39,39,39,39,39,39,40,
38,64,48,65,66,67,47,63,39,39,39,72,2,2,69,39,39,39,39,39,39,39,39,39,39,39,39,39,39,39,39,39,39,39,39,39,39,39,39,40,
38,40,5,73,74,75,5,38,39,39,39,39,39,39,39,39,39,39,39,39,39,39,39,39,39,39,39,49,50,50,50,50,50,50,50,50,50,50,50,51,
38,40,84,73,74,75,5,46,63,39,39,39,39,39,39,39,39,39,39,39,39,39,39,39,39,39,64,57,6,7,7,4,23,5,5,4,4,23,23,59,
38,40,84,89,90,91,11,62,38,39,39,39,39,39,39,39,39,39,39,39,39,39,39,39,39,39,40,65,70,6,72,8,2,22,5,7,4,23,23,59,
38,40,70,11,11,11,72,71,38,39,39,39,39,39,39,39,39,39,39,39,39,39,39,39,39,39,40,73,78,79,80,8,23,2,2,7,8,2,22,59,
38,56,32,42,42,42,22,42,38,39,39,39,39,39,39,39,39,39,39,39,39,39,39,39,39,39,40,73,78,79,80,8,2,7,7,7,8,8,22,59,
38,39,56,31,31,31,31,31,55,39,39,39,39,39,39,39,39,39,39,39,39,39,39,39,39,39,40,73,78,79,80,8,2,7,7,7,8,8,22,59,
38,39,39,39,39,39,39,39,39,39,39,39,39,39,39,39,39,39,39,39,39,39,39,39,39,39,40,81,86,87,88,65,66,66,66,66,66,66,66,67,
38,39,39,39,39,39,39,39,39,39,39,39,39,39,39,39,39,39,39,39,39,39,39,39,39,39,56,31,31,31,31,73,74,74,74,74,74,74,74,75,
46,47,47,47,47,47,47,47,47,47,47,47,47,47,47,47,47,47,47,47,47,47,47,47,47,47,47,47,47,47,47,73,45,45,45,45,45,45,45,83
</data>
 </layer>
 <objectgroup id="2" name="Floorblocks">
  <object id="4" name="Floorblocks" type="Floorblocks" x="2.66667" y="9.33333" width="14.6667" height="788" visible="0"/>
  <object id="5" name="FloorblockR" x="1274.67" y="8" width="12" height="792" visible="0"/>
  <object id="8" x="10" y="0" width="1270" height="6" visible="0"/>
  <object id="9" x="14" y="792" width="1266" height="14" visible="0"/>
  <object id="10" name="BossA" x="146.667" y="30.6667" width="92" height="60">
   <properties>
    <property name="BossA" value="Enter"/>
   </properties>
  </object>
  <object id="13" name="BossB" x="942.667" y="9.33333" width="100" height="56">
   <properties>
    <property name="BossB" value="EnterB"/>
   </properties>
  </object>
 </objectgroup>
</map>
